packages/kaspersky-hexa-ui-icons/src/iconsSVGs/16/CronjobK8S.svg

<svg width="16" height="16" viewBox="0 0 16 16" fill="none" xmlns="http://www.w3.org/2000/svg">
<path fill-rule="evenodd" clip-rule="evenodd" d="M10.7681 3.78213C10.7681 4.58294 11.4173 5.23213 12.2181 5.23213H13.5478C14.3486 5.23213 14.9978 4.58294 14.9978 3.78213V2.45244C14.9978 1.65163 14.3486 1.00244 13.5478 1.00244H12.2181C11.4173 1.00244 10.7681 1.65163 10.7681 2.45244V3.78213ZM12.2181 3.93213C12.1352 3.93213 12.0681 3.86497 12.0681 3.78213V2.45244C12.0681 2.3696 12.1352 2.30244 12.2181 2.30244H13.5478C13.6306 2.30244 13.6978 2.3696 13.6978 2.45244V3.78213C13.6978 3.86497 13.6306 3.93213 13.5478 3.93213H12.2181Z" fill="black"/>
<path fill-rule="evenodd" clip-rule="evenodd" d="M1.00244 8.66494C1.00244 9.46575 1.65163 10.1149 2.45244 10.1149H3.78213C4.58294 10.1149 5.23213 9.46575 5.23213 8.66494V7.33525C5.23213 6.53444 4.58294 5.88525 3.78213 5.88525H2.45244C1.65163 5.88525 1.00244 6.53444 1.00244 7.33525V8.66494ZM2.45244 8.81494C2.3696 8.81494 2.30244 8.74778 2.30244 8.66494V7.33525C2.30244 7.25241 2.3696 7.18525 2.45244 7.18525H3.78213C3.86497 7.18525 3.93213 7.25241 3.93213 7.33525V8.66494C3.93213 8.74778 3.86497 8.81494 3.78213 8.81494H2.45244Z" fill="black"/>
<path fill-rule="evenodd" clip-rule="evenodd" d="M2.45244 14.9978C1.65163 14.9978 1.00244 14.3486 1.00244 13.5478V12.2181C1.00244 11.4173 1.65163 10.7681 2.45244 10.7681H3.78213C4.58294 10.7681 5.23213 11.4173 5.23213 12.2181V13.5478C5.23213 14.3486 4.58294 14.9978 3.78213 14.9978H2.45244ZM2.30244 13.5478C2.30244 13.6306 2.3696 13.6978 2.45244 13.6978H3.78213C3.86497 13.6978 3.93213 13.6306 3.93213 13.5478V12.2181C3.93213 12.1352 3.86497 12.0681 3.78213 12.0681H2.45244C2.3696 12.0681 2.30244 12.1352 2.30244 12.2181V13.5478Z" fill="black"/>
<path d="M10.9978 8.34775C10.9978 7.98877 10.7067 7.69775 10.3478 7.69775C9.98877 7.69775 9.69775 7.98877 9.69775 8.34775V10.3478C9.69775 10.7067 9.98877 10.9978 10.3478 10.9978H12.3478C12.7067 10.9978 12.9978 10.7067 12.9978 10.3478C12.9978 9.98877 12.7067 9.69775 12.3478 9.69775H10.9978V8.34775Z" fill="black"/>
<path fill-rule="evenodd" clip-rule="evenodd" d="M5.69775 10.3478C5.69775 7.77963 7.77963 5.69775 10.3478 5.69775C12.9159 5.69775 14.9978 7.77963 14.9978 10.3478C14.9978 12.9159 12.9159 14.9978 10.3478 14.9978C7.77963 14.9978 5.69775 12.9159 5.69775 10.3478ZM10.3478 6.99775C8.4976 6.99775 6.99775 8.4976 6.99775 10.3478C6.99775 12.1979 8.4976 13.6978 10.3478 13.6978C12.1979 13.6978 13.6978 12.1979 13.6978 10.3478C13.6978 8.4976 12.1979 6.99775 10.3478 6.99775Z" fill="black"/>
</svg>

<svg xmlns="http://www.w3.org/2000/svg" width="16" height="16" fill="none" viewBox="0 0 16 16"><path fill="#000" fill-rule="evenodd" d="M10.7679 3.782c0 .8008.6492 1.45 1.45 1.45h1.3297c.8008 0 1.45-.6492 1.45-1.45V2.4523c0-.8008-.6492-1.45-1.45-1.45h-1.3297c-.8008 0-1.45.6492-1.45 1.45zm1.45.15a.15.15 0 0 1-.15-.15V2.4523a.15.15 0 0 1 .15-.15h1.3297a.15.15 0 0 1 .15.15V3.782a.15.15 0 0 1-.15.15zm-1.8703 1.7656c-2.5681 0-4.65 2.0819-4.65 4.65s2.0819 4.65 4.65 4.65 4.65-2.0818 4.65-4.65c0-2.5681-2.0818-4.65-4.65-4.65M1.0023 8.6648c0 .8008.6492 1.45 1.45 1.45H3.782c.8008 0 1.45-.6492 1.45-1.45V7.3351c0-.8008-.6492-1.45-1.45-1.45H2.4523c-.8008 0-1.45.6492-1.45 1.45zm5.9953 1.6828c0-1.8501 1.4999-3.35 3.35-3.35s3.35 1.4999 3.35 3.35-1.4998 3.35-3.35 3.35-3.35-1.4998-3.35-3.35M2.4523 8.8148a.15.15 0 0 1-.15-.15V7.3351a.15.15 0 0 1 .15-.15H3.782a.15.15 0 0 1 .15.15v1.3297a.15.15 0 0 1-.15.15zm7.8953-1.1172a.65.65 0 0 1 .65.65v1.35h1.35a.65.65 0 1 1 0 1.3h-2a.65.65 0 0 1-.65-.65v-2a.65.65 0 0 1 .65-.65m-7.8953 7.3c-.8008 0-1.45-.6492-1.45-1.45v-1.3297c0-.8008.6492-1.45 1.45-1.45H3.782c.8008 0 1.45.6492 1.45 1.45v1.3297c0 .8008-.6492 1.45-1.45 1.45zm-.15-1.45a.15.15 0 0 0 .15.15H3.782a.15.15 0 0 0 .15-.15v-1.3297a.15.15 0 0 0-.15-.15H2.4523a.15.15 0 0 0-.15.15z"/></svg>
